packages/ffe-icons/icons/open/300/sm/mode_comment.svg

<svg xmlns="http://www.w3.org/2000/svg" height="20" viewBox="0 -960 960 960" width="20"><path d="M180.309-260.001q-27.008 0-45.658-18.65-18.65-18.65-18.65-45.658v-455.382q0-27.008 18.65-45.658 18.65-18.65 45.658-18.65h599.382q27.008 0 45.658 18.65 18.65 18.65 18.65 45.658v567.843q0 21.495-19.693 29.747-19.692 8.252-34.886-6.942l-70.959-70.958H180.309ZM739.999-312 792-259.615v-520.076q0-4.616-3.846-8.463-3.847-3.846-8.463-3.846H180.309q-4.616 0-8.463 3.846-3.846 3.847-3.846 8.463v455.382q0 4.616 3.846 8.463 3.847 3.846 8.463 3.846h559.69ZM168-312V-792v480Z"/></svg>

<svg xmlns="http://www.w3.org/2000/svg" height="20" viewBox="0 -960 960 960" width="20"><path d="M180.31-260q-27.01 0-45.66-18.65Q116-297.3 116-324.31v-455.38q0-27.01 18.65-45.66Q153.3-844 180.31-844h599.38q27.01 0 45.66 18.65Q844-806.7 844-779.69v567.84q0 21.5-19.69 29.75-19.7 8.25-34.89-6.94L718.46-260H180.31ZM740-312l52 52.39v-520.08q0-4.62-3.85-8.46-3.84-3.85-8.46-3.85H180.31q-4.62 0-8.46 3.85-3.85 3.84-3.85 8.46v455.38q0 4.62 3.85 8.46 3.84 3.85 8.46 3.85H740Zm-572 0v-480 480Z"/></svg>
